X: 92
T:Missa Fortuna desperata / Gloria
N: Derived from Jos0802b-Missa_Fortuna_desperata-Gloria.krn
C: Josquin des Prez
%%abc-version 2.0
%%abcx-abcm2ps-target-version 5.9.1 (29 Sep 2008)
%%abc-creator hum2abc beta
%%abcx-conversion-date 2019/02/12 16:15:42
%%abc-edited-by Jesse Rodin
%%abc-edited-by Jesse Rodin; Victoria Chang 2011/04/13
%%abcx-initial-encoding-date 2011/04/13/
%%humdrum-veritas 26810228
%%humdrum-veritas-data 4039124388
%%linebreak <none>
%%barnumbers 0
L: 1/4
M: 3/1
Q: 1/2=120
%%staves [1 2 3 4]
V: 1 clef=treble
V: 2 clef=treble-8
V: 3 clef=treble-8
V: 4 clef=bass
K: C
[V:1] F4D2C2F3E | 
[V:2] F8F2G2 | 
[V:3] z12 | 
[V:4] z12 | 
[V:1] C4z4G4 | 
[V:2] A4G8 | 
[V:3] z12 | 
[V:4] z12 | 
[V:1] A6A2A4 | 
[V:2] F2f2d2c2f3e | 
[V:3] z12 | 
[V:4] F,8D,2C,2 | 
[V:1] A4G8 | 
[V:2] c3de2f2g2e2 | 
[V:3] z12 | 
[V:4] F,3E,C,8 | 
[V:1] A8A4 | 
[V:2] f2c2d2e2ABcd | 
[V:3] z12 | 
[V:4] F,4D,2C,2F,3E, | 
[V:1] G2A2F2G2A4 | 
[V:2] e2c2d2e2f2d2 | 
[V:3] z12 | 
[V:4] C,2F,2D,2C,2F,3E, | 
[V:1] G2A2B2c4A2 | 
[V:2] e2c2d2e2A2c2- | 
[V:3] z12 | 
[V:4] C,2F,3E,C,2F,3E, | 
[V:1] G2A3GF4E2 | 
[V:2] cBAGF4G4 | 
[V:3] z12 | 
[V:4] C,4D,4C,4 | 
[V:1] F4D2C2F3E | 
[V:2] F4f4d2c2 | 
[V:3] F12 | 
[V:4] z12 | 
[V:1] DCF3EE2D4 | 
[V:2] f3edcc4B2 | 
[V:3] F4G8 | 
[V:4] z12 | 
[V:1] z2C2D2E2C3D | 
[V:2] c4z4z4 | 
[V:3] A12 | 
[V:4] F,4D,2C,2F,3E, | 
[V:1] E2F2G2A2_B4 | 
[V:2] z12 | 
[V:3] G12 | 
[V:4] C,3D,E,2F,4E,2 | 
[V:1] A2c4c2c3A | 
[V:2] z2c4c2c2c2 | 
[V:3] F12 | 
[V:4] F,2A,4A,2A,2A,2 | 
[V:1] B2c4A2G4 | 
[V:2] d2c2A2c3BG2 | 
[V:3] z4c8 | 
[V:4] G,2A,3G,F,E,/D,/E,4 | 
[V:1] F4_B4A4 | 
[V:2] A2_B3Gg4^f2 | 
[V:3] d12 | 
[V:4] D,4G,4D,4 | 
[V:1] z2G4G2G2G2 | 
[V:2] g2G4G2G2G2 | 
[V:3] _B4c8 | 
[V:4] z2_E,4E,2E,2E,2 | 
[V:1] F2A3GG4^F2 | 
[V:2] A2F2_B4A4 | 
[V:3] d12 | 
[V:4] D,4G,4D,4 | 
[V:1] G4z2G2G2G2 | 
[V:2] z2G4G2G2G2 | 
[V:3] _B4_B8 | 
[V:4] z2_E,4E,2E,2E,2 | 
[V:1] E2G3AB2c2A2- | 
[V:2] A2G2gfedc2d2 | 
[V:3] c4B4A4 | 
[V:4] C,3D,E,F,G,2A,2F,2- | 
[V:1] AGF2E2F4E2 | 
[V:2] A3Bc2d2c4 | 
[V:3] F4G8 | 
[V:4] F,E,D,2C,2B,,2C,4 | 
[V:1] F12 | 
[V:2] A8z4 | 
[V:3] F12- | 
[V:4] C4C2C2D2C2 | 
[V:1] z12 | 
[V:2] c4c2c2d2c2 | 
[V:3] F12- | 
[V:4] A,2F,3G,A,2D,2A,2 | 
[V:1] c4c2c2d2c2 | 
[V:2] A2c4_BA_B2A2 | 
[V:3] F12 | 
[V:4] z2A,4F,2_B,,2F,2 | 
[V:1] A2c4_BAB2A2 | 
[V:2] F4z2c2d3c | 
[V:3] z12 | 
[V:4] z2F,6_B,,2F,2- | 
[V:1] F4z2c2d2c2 | 
[V:2] d2f2e2f3ga2 | 
[V:3] z12 | 
[V:4] F,E,D,2C,2F,2_B,,2F,2 | 
[V:1] d2c3d/e/f4e2 | 
[V:2] f2a4f2g4 | 
[V:3] z12 | 
[V:4] z2F,3E,D,2C,4 | 
[V:1] f6e2d4 | 
[V:2] f4F4_B4 | 
[V:3] f12 | 
[V:4] D,8_B,,4 | 
[V:1] c2A2_B3AF4 | 
[V:2] A2F2_B4A2F2 | 
[V:3] f4d8 | 
[V:4] F,4G,3F,D,4 | 
[V:1] z2c4d2e4 | 
[V:2] c12 | 
[V:3] e8g4 | 
[V:4] C,4z4C,4 | 
[V:1] A2e2f2d3c_BA | 
[V:2] z4z2f2d2f2 | 
[V:3] f2e2d8 | 
[V:4] D,2C,2D,4_B,,4 | 
[V:1] G2c2F2f4ed | 
[V:2] edcBA2F3GAB | 
[V:3] e4f8 | 
[V:4] C,4D,8 | 
[V:1] e2c2d2e3dcB | 
[V:2] c4B2c3de2 | 
[V:3] g12 | 
[V:4] C,4z4C,4 | 
[V:1] A4z4z4 | 
[V:2] f3edcd2c2f2 | 
[V:3] f4f4e2d2 | 
[V:4] D,3C,D,2_B,,2C,2D,2 | 
[V:1] z12 | 
[V:2] e2c4BAG2A2- | 
[V:3] e12 | 
[V:4] C,4z4C,4 | 
[V:1] f6e2d4 | 
[V:2] A2F2F4f4 | 
[V:3] f12 | 
[V:4] D,8_B,,4 | 
[V:1] c4_B2A4GF | 
[V:2] e4d3cA4 | 
[V:3] z4f4f4 | 
[V:4] C,4D,8 | 
[V:1] G2A2B2c3BA2 | 
[V:2] z2A2G2c6 | 
[V:3] e2d4c2A4 | 
[V:4] C,2F,2G,2A,2F,4 | 
[V:1] G2F3EDCD4 | 
[V:2] d3ef8- | 
[V:3] _B12 | 
[V:4] _B,,12 | 
[V:1] C2c2d2e2f4 | 
[V:2] f12 | 
[V:3] A12 | 
[V:4] F,3E,D,2C,2D,4 | 
[V:1] e2f2c3de2A2- | 
[V:2] g2a3gf2e2f2- | 
[V:3] c12 | 
[V:4] C,2F,3G,A,B,C2F,2- | 
[V:1] A2_B4A4G2 | 
[V:2] fedc_B2f2d3e | 
[V:3] d12 | 
[V:4] F,2G,4F,2_B,3A, | 
[V:1] A4G2c3BA2 | 
[V:2] f2c3defg2c2- | 
[V:3] c12 | 
[V:4] F,4C,3D,E,2F,2 | 
[V:1] GFEDC4D4 | 
[V:2] cdefg2c4B2 | 
[V:3] e8z4 | 
[V:4] z2C,3D,E,2F,2G,2 | 
[V:1] C2G2F2A4B2 | 
[V:2] c3BAGF2A2G2 | 
[V:3] e4f4d4 | 
[V:4] z2C,2D,3E,F,2G,2 | 
[V:1] c3BA2G2FED2 | 
[V:2] A2G2z2G2A2B2 | 
[V:3] c8d4 | 
[V:4] z2C,3D,E,2F,2G,2 | 
[V:1] CDEFG2A2z2D2 | 
[V:2] G2c3BAGA2G2- | 
[V:3] e6d2c2B2 | 
[V:4] C,3D,E,2F,4G,2 | 
[V:1] EDEFG2F4E2 | 
[V:2] G2c4A2G4 | 
[V:3] c12 | 
[V:4] C,3D,E,2F,2C,4 | 
[V:1] F3GA2_B2A2B2 | 
[V:2] z12 | 
[V:3] d12 | 
[V:4] z12 | 
[V:1] A2_B3AA4G2 | 
[V:2] z12 | 
[V:3] d4_B8 | 
[V:4] z12 | 
[V:1] A6G2F2E2 | 
[V:2] c8d4- | 
[V:3] A12 | 
[V:4] F,6E,2D,2C,2 | 
[V:1] D4d6c2 | 
[V:2] d2c2_B2A2G4 | 
[V:3] _B12 | 
[V:4] _B,,2A,,2G,,4G,4- | 
[V:1] _B2A2G6AB | 
[V:2] g6f2e2d2 | 
[V:3] G12 | 
[V:4] G,2F,2E,2D,2C,2_B,,2 | 
[V:1] c3_BA2G2F2E2 | 
[V:2] c6def4- | 
[V:3] A12 | 
[V:4] A,,2F,4E,2D,2C,2 | 
[V:1] D4z2A2G2_B2- | 
[V:2] f2e2d2c2_B4 | 
[V:3] _B4A4d4- | 
[V:4] _B,,4F,4G,4 | 
[V:1] B2A4G2A2F2 | 
[V:2] f4d2_e2c2d2 | 
[V:3] d2c2_B4A4 | 
[V:4] F,4G,2_E,2F,2D,2 | 
[V:1] GFEDE2F4E2 | 
[V:2] _B2c4=B2c4- | 
[V:3] G12 | 
[V:4] _E,D,C,_B,,C,2D,2C,4 | 
[V:1] F12 ||  
[V:2] c12 ||  
[V:3] F12 ||  
[V:4] F,12 ||  
[V:1] [M:2/1]z8 | 
[V:2] [M:2/1]z8 | 
[V:3] [M:2/1]z8 | 
[V:4] [M:2/1]C4D2C2- | 
[V:1] z8 | 
[V:2] z8 | 
[V:3] z8 | 
[V:4] C2_B,A,D2C2 | 
[V:1] z8 | 
[V:2] c4d2c2- | 
[V:3] z8 | 
[V:4] A,4z4 | 
[V:1] z8 | 
[V:2] c2_BAd2c2 | 
[V:3] z8 | 
[V:4] A,4_B,2A,2- | 
[V:1] c4d2c2- | 
[V:2] A4z4 | 
[V:3] z8 | 
[V:4] A,2G,F,_B,2A,2 | 
[V:1] c2_BAd2c2 | 
[V:2] A4_B2A2- | 
[V:3] z8 | 
[V:4] F,4z4 | 
[V:1] A4z4 | 
[V:2] A2GF_B2A2 | 
[V:3] z8 | 
[V:4] F,4_B,,2F,2- | 
[V:1] A4_B2A2- | 
[V:2] F2c2d2c2- | 
[V:3] z8 | 
[V:4] F,4_B,,2F,2- | 
[V:1] A2GF_B2A2- | 
[V:2] c2_BAd2c2 | 
[V:3] F8 | 
[V:4] F,4_B,,2F,2- | 
[V:1] A2GFE4 | 
[V:2] A2B2c4- | 
[V:3] F4G4 | 
[V:4] F,2D,2C,4 | 
[V:1] z8 | 
[V:2] c2BAcdef | 
[V:3] A8 | 
[V:4] z8 | 
[V:1] z8 | 
[V:2] g2f4e2 | 
[V:3] G8 | 
[V:4] z8 | 
[V:1] z4F4- | 
[V:2] f4A4 | 
[V:3] F8 | 
[V:4] z4F,4 | 
[V:1] F4F4 | 
[V:2] A4A4 | 
[V:3] z4c4 | 
[V:4] F,4F,4 | 
[V:1] F4F4 | 
[V:2] _B8 | 
[V:3] d8 | 
[V:4] _B,,8 | 
[V:1] G6F2 | 
[V:2] G8 | 
[V:3] _B4c4 | 
[V:4] _E,8 | 
[V:1] F8 | 
[V:2] A8 | 
[V:3] d8- | 
[V:4] D,8 | 
[V:1] z4G4 | 
[V:2] z8 | 
[V:3] d4_B4 | 
[V:4] z4G,4 | 
[V:1] G4G4 | 
[V:2] z8 | 
[V:3] _B8 | 
[V:4] G,4G,4 | 
[V:1] G4G4 | 
[V:2] z8 | 
[V:3] c4_B4 | 
[V:4] C,4G,4 | 
[V:1] C4D4 | 
[V:2] z8 | 
[V:3] A4F4 | 
[V:4] F,3E,D,4 | 
[V:1] E8 | 
[V:2] z8 | 
[V:3] G8 | 
[V:4] C,8 | 
[V:1] z4A4- | 
[V:2] z4f4- | 
[V:3] F8- | 
[V:4] z4C4- | 
[V:1] A2A2A4 | 
[V:2] f2f2f4 | 
[V:3] F8- | 
[V:4] C2C2C4 | 
[V:1] A2A2A2A2 | 
[V:2] f2f2f2f2 | 
[V:3] F8 | 
[V:4] C2C2C2C2 | 
[V:1] _B3AGFG2- | 
[V:2] f3edcd2- | 
[V:3] z8 | 
[V:4] D3C_B,A,B,2- | 
[V:1] GFF4E2 | 
[V:2] dcc4_B2 | 
[V:3] z8 | 
[V:4] B,A,G,F,G,4 | 
[V:1] F3GABc2 | 
[V:2] d2c4_BA | 
[V:3] z8 | 
[V:4] F,8 | 
[V:1] d2c3BAG | 
[V:2] _B2A2F4 | 
[V:3] f8 | 
[V:4] z4z2F,2- | 
[V:1] AGA4GF | 
[V:2] z8 | 
[V:3] f4d4 | 
[V:4] F,2E,D,F,2G,2 | 
[V:1] G4C4 | 
[V:2] z2c4BA | 
[V:3] e8 | 
[V:4] C,8 | 
[V:1] z2G2A2c2 | 
[V:2] B2c2F4 | 
[V:3] g4f2e2 | 
[V:4] z8 | 
[V:1] B2G2A2B2- | 
[V:2] z8 | 
[V:3] d8 | 
[V:4] z2G,2F,2G,2- | 
[V:1] B2AGA2B2- | 
[V:2] z4d4 | 
[V:3] e4f4 | 
[V:4] G,2F,E,D,4 | 
[V:1] B2c2d2B2- | 
[V:2] e4d4 | 
[V:3] g8- | 
[V:4] z4G,4 | 
[V:1] B2G2A4 | 
[V:2] e4c4 | 
[V:3] g4f4 | 
[V:4] E,4F,4 | 
[V:1] _B8 | 
[V:2] d8 | 
[V:3] f4e2d2 | 
[V:4] _B,,8 | 
[V:1] G8 | 
[V:2] c4c4 | 
[V:3] e8 | 
[V:4] C,8 | 
[V:1] z4A4- | 
[V:2] d4c4 | 
[V:3] f8 | 
[V:4] z4F,4- | 
[V:1] A2A2A4 | 
[V:2] A4c4- | 
[V:3] z4f4 | 
[V:4] F,2F,2F,4 | 
[V:1] A4G2_B2- | 
[V:2] c2_BA_B3A | 
[V:3] f4e2d2- | 
[V:4] F,4G,4 | 
[V:1] B2A2A4- | 
[V:2] F8 | 
[V:3] d2c2A4 | 
[V:4] D,8 | 
[V:1] A4G4 | 
[V:2] z4d4 | 
[V:3] _B8 | 
[V:4] z8 | 
[V:1] A8 | 
[V:2] e4f4- | 
[V:3] A8 | 
[V:4] z4F,4 | 
[V:1] z4A4- | 
[V:2] f4f4 | 
[V:3] c8 | 
[V:4] F,4F,4 | 
[V:1] A2A2A4 | 
[V:2] f4F4- | 
[V:3] d8 | 
[V:4] D,4D,4 | 
[V:1] A4A4 | 
[V:2] F2G2A2B2 | 
[V:3] c8 | 
[V:4] F,4F,4 | 
[V:1] G2A2G2A2- | 
[V:2] c8- | 
[V:3] e8 | 
[V:4] C,8 | 
[V:1] A2GFG4 | 
[V:2] c8 | 
[V:3] z4e4 | 
[V:4] z4C,4 | 
[V:1] z8 | 
[V:2] F4_B4 | 
[V:3] f4d4 | 
[V:4] D,4_B,,4 | 
[V:1] z4A4 | 
[V:2] A4F4 | 
[V:3] c8 | 
[V:4] F,6E,2 | 
[V:1] B4c4- | 
[V:2] z8 | 
[V:3] d4e4- | 
[V:4] D,4C,4 | 
[V:1] c2B2A2G2- | 
[V:2] z8 | 
[V:3] e2d2c2B2 | 
[V:4] z8 | 
[V:1] GFEDE4 | 
[V:2] z8 | 
[V:3] c8 | 
[V:4] z8 | 
[V:1] D4d4- | 
[V:2] z4f4- | 
[V:3] d8 | 
[V:4] z4_B,,4- | 
[V:1] d4d4 | 
[V:2] f4f4 | 
[V:3] d4_B4 | 
[V:4] B,,4_B,,4 | 
[V:1] c6BA | 
[V:2] f6e2 | 
[V:3] A8 | 
[V:4] F,4F,4 | 
[V:1] G4F4 | 
[V:2] d4d4 | 
[V:3] _B8 | 
[V:4] G,4D,4 | 
[V:1] G4G4 | 
[V:2] B4c4 | 
[V:3] G8 | 
[V:4] E,8 | 
[V:1] F8 | 
[V:2] d8 | 
[V:3] A8 | 
[V:4] D,8 | 
[V:1] G4A4- | 
[V:2] d4f4- | 
[V:3] _B4A4 | 
[V:4] z4D,4 | 
[V:1] A2GF_B2A2- | 
[V:2] f2edf4 | 
[V:3] d6c2 | 
[V:4] D,8 | 
[V:1] A2G2A2F2- | 
[V:2] e4c4- | 
[V:3] B4A4 | 
[V:4] E,4F,4 | 
[V:1] F2EDE4 | 
[V:2] c8 | 
[V:3] G8 | 
[V:4] C,8 | 
[V:1] F8 | 
[V:2] A6GF | 
[V:3] F8- | 
[V:4] C6_B,A, | 
[V:1] z8 | 
[V:2] F4c4- | 
[V:3] F8 | 
[V:4] D2C2A,4- | 
[V:1] z8 | 
[V:2] c2_BAc2_B2- | 
[V:3] [M:4/2]z4z4 | 
[V:4] A,2G,F,A,2G,2- | 
[V:1] z8 | 
[V:2] B2A2G4 | 
[V:3] z4z4 | 
[V:4] G,F,F,4E,2 | 
[V:1] c6_BA | 
[V:2] F4f4- | 
[V:3] z4z4 | 
[V:4] F,8 | 
[V:1] d2c2A4- | 
[V:2] f2e2f2c2- | 
[V:3] z4z4 | 
[V:4] z8 | 
[V:1] A2GFA2G2- | 
[V:2] c4d2e2 | 
[V:3] F4F2G2 | 
[V:4] z2F,4E,2 | 
[V:1] G2F4E2 | 
[V:2] c2d2edcB | 
[V:3] A4G4 | 
[V:4] F,4C,4 | 
[V:1] F2c3BA2- | 
[V:2] A4F4 | 
[V:3] F4z2c2 | 
[V:4] z2A,3G,F,E, | 
[V:1] A2GFG3A | 
[V:2] A4G2g2 | 
[V:3] d4_B2c2 | 
[V:4] D,4E,4 | 
[V:1] _B2A3GB2- | 
[V:2] f3ef2d2- | 
[V:3] d6_B2 | 
[V:4] D,4z2G,2- | 
[V:1] BAGFE4 | 
[V:2] d4e2g2- | 
[V:3] _B4c2_B2 | 
[V:4] G,F,E,D,C,4 | 
[V:1] z4G4 | 
[V:2] gff4e2 | 
[V:3] A2F2G4 | 
[V:4] D,4C,4 | 
[V:1] A6A2 | 
[V:2] f8 | 
[V:3] F4-F4- | 
[V:4] C3B,A,G,A,2 | 
[V:1] A4_B4 | 
[V:2] z2c2d2e2 | 
[V:3] F4z4 | 
[V:4] F,2A,2G,4 | 
[V:1] A3GA2F2- | 
[V:2] f3ec2d2 | 
[V:3] z4z4 | 
[V:4] z2F,3E,D,C, | 
[V:1] F2EDF4 | 
[V:2] A2_B3AF2 | 
[V:3] f4f2d2 | 
[V:4] D,2_B,,2D,4 | 
[V:1] G4z4 | 
[V:2] c6A2 | 
[V:3] e4g2fe | 
[V:4] z2C,4D,2 | 
[V:1] z8 | 
[V:2] _B2A2c4 | 
[V:3] d4e2f2 | 
[V:4] _B,,2D,2C,4 | 
[V:1] z8 | 
[V:2] _B2c4A2 | 
[V:3] g6f2 | 
[V:4] z2C,4D,2 | 
[V:1] z8 | 
[V:2] _BAGFG4 | 
[V:3] f2ede4 | 
[V:4] _B,,2D,2C,4 | 
[V:1] z2F2F3G | 
[V:2] F8 | 
[V:3] f4z2f2 | 
[V:4] z8 | 
[V:1] A2_B3AA2- | 
[V:2] z8 | 
[V:3] f2ed2cA2 | 
[V:4] z8 | 
[V:1] A2G2A3G | 
[V:2] z8 | 
[V:3] _B4A4 | 
[V:4] z8 | 
[V:1] ABc4B2 | 
[V:2] z4g4 | 
[V:3] c4d4 | 
[V:4] A,4G,4 | 
[V:1] c4z2c2 | 
[V:2] e2f2g2c2 | 
[V:3] c4e4 | 
[V:4] A,4G,2A,2 | 
[V:1] B2c4B2 | 
[V:2] d2c4g2 | 
[V:3] z2e2f2d2 | 
[V:4] G,2A,2F,2G,2 | 
[V:1] c2A2B4 | 
[V:2] e2f2g4 | 
[V:3] c4d2e2- | 
[V:4] A,4G,4 | 
[V:1] z2c2A2c2 | 
[V:2] e4f4 | 
[V:3] edcBc4 | 
[V:4] A,4F,2A,2 | 
[V:1] B4A2d2- | 
[V:2] g4f2g2 | 
[V:3] d4d2_B2 | 
[V:4] G,4z2G,2 | 
[V:1] dcc4B2 | 
[V:2] e2f2d4 | 
[V:3] A4_B4 | 
[V:4] A,2F,2G,4 | 
[V:1] c6BA | 
[V:2] c6d2 | 
[V:3] G4A4 | 
[V:4] C,4F,4 | 
[V:1] G2A2_B3A | 
[V:2] e2c2f4 | 
[V:3] _B2A2d3c | 
[V:4] E,2F,2_B,,2D,2 | 
[V:1] GFF4E2 | 
[V:2] e2c3Bc2 | 
[V:3] _B2A2G4 | 
[V:4] E,2F,2C,4 | 
[V:1] F8- | 
[V:2] A2d2c2f2- | 
[V:3] F4-F4- | 
[V:4] F,8- | 
[V:1] F8- | 
[V:2] fec2d4 | 
[V:3] F4-F4- | 
[V:4] F,8- | 
[V:1] F8 |]  
[V:2] c8 |]  
[V:3] F4-F4 |]  
[V:4] F,8 |]  



